bernoullicharts/0_5_x_1_0_5_x__bound.svg

<?xml version="1.0" encoding="utf-8" standalone="no"?>
<!DOCTYPE svg PUBLIC "-//W3C//DTD SVG 1.1//EN"
  "http://www.w3.org/Graphics/SVG/1.1/DTD/svg11.dtd">
<!-- Created with matplotlib (https://matplotlib.org/) -->
<svg height="345.6pt" version="1.1" viewBox="0 0 460.8 345.6" width="460.8pt" xmlns="http://www.w3.org/2000/svg" xmlns:xlink="http://www.w3.org/1999/xlink">
 <defs>
  <style type="text/css">
*{stroke-linecap:butt;stroke-linejoin:round;}
  </style>
 </defs>
 <g id="figure_1">
  <g id="patch_1">
   <path d="M 0 345.6 
L 460.8 345.6 
L 460.8 0 
L 0 0 
z
" style="fill:#ffffff;"/>
  </g>
  <g id="axes_1">
   <g id="patch_2">
    <path d="M 57.6 307.584 
L 414.72 307.584 
L 414.72 41.472 
L 57.6 41.472 
z
" style="fill:#ffffff;"/>
   </g>
   <g id="matplotlib.axis_1">
    <g id="xtick_1">
     <g id="line2d_1">
      <defs>
       <path d="M 0 0 
L 0 3.5 
" id="mcfb440d6a2" style="stroke:#000000;stroke-width:0.8;"/>
      </defs>
      <g>
       <use style="stroke:#000000;stroke-width:0.8;" x="73.800255" xlink:href="#mcfb440d6a2" y="307.584"/>
      </g>
     </g>
     <g id="text_1">
      <text style="font-family:DejaVu Sans;font-size:10px;font-style:normal;font-weight:normal;text-anchor:middle;" transform="rotate(-0, 73.800255, 322.182437)" x="73.800255" y="322.182437">0.0</text>
     </g>
    </g>
    <g id="xtick_2">
     <g id="line2d_2">
      <g>
       <use style="stroke:#000000;stroke-width:0.8;" x="138.744153" xlink:href="#mcfb440d6a2" y="307.584"/>
      </g>
     </g>
     <g id="text_2">
      <text style="font-family:DejaVu Sans;font-size:10px;font-style:normal;font-weight:normal;text-anchor:middle;" transform="rotate(-0, 138.744153, 322.182437)" x="138.744153" y="322.182437">0.2</text>
     </g>
    </g>
    <g id="xtick_3">
     <g id="line2d_3">
      <g>
       <use style="stroke:#000000;stroke-width:0.8;" x="203.688051" xlink:href="#mcfb440d6a2" y="307.584"/>
      </g>
     </g>
     <g id="text_3">
      <text style="font-family:DejaVu Sans;font-size:10px;font-style:normal;font-weight:normal;text-anchor:middle;" transform="rotate(-0, 203.688051, 322.182437)" x="203.688051" y="322.182437">0.4</text>
     </g>
    </g>
    <g id="xtick_4">
     <g id="line2d_4">
      <g>
       <use style="stroke:#000000;stroke-width:0.8;" x="268.631949" xlink:href="#mcfb440d6a2" y="307.584"/>
      </g>
     </g>
     <g id="text_4">
      <text style="font-family:DejaVu Sans;font-size:10px;font-style:normal;font-weight:normal;text-anchor:middle;" transform="rotate(-0, 268.631949, 322.182437)" x="268.631949" y="322.182437">0.6</text>
     </g>
    </g>
    <g id="xtick_5">
     <g id="line2d_5">
      <g>
       <use style="stroke:#000000;stroke-width:0.8;" x="333.575847" xlink:href="#mcfb440d6a2" y="307.584"/>
      </g>
     </g>
     <g id="text_5">
      <text style="font-family:DejaVu Sans;font-size:10px;font-style:normal;font-weight:normal;text-anchor:middle;" transform="rotate(-0, 333.575847, 322.182437)" x="333.575847" y="322.182437">0.8</text>
     </g>
    </g>
    <g id="xtick_6">
     <g id="line2d_6">
      <g>
       <use style="stroke:#000000;stroke-width:0.8;" x="398.519745" xlink:href="#mcfb440d6a2" y="307.584"/>
      </g>
     </g>
     <g id="text_6">
      <text style="font-family:DejaVu Sans;font-size:10px;font-style:normal;font-weight:normal;text-anchor:middle;" transform="rotate(-0, 398.519745, 322.182437)" x="398.519745" y="322.182437">1.0</text>
     </g>
    </g>
    <g id="text_7">
     <text style="font-family:DejaVu Sans;font-size:10px;font-style:normal;font-weight:normal;text-anchor:middle;" transform="rotate(-0, 236.16, 335.860562)" x="236.16" y="335.860562">Input Coin's Heads Probability (λ)</text>
    </g>
   </g>
   <g id="matplotlib.axis_2">
    <g id="ytick_1">
     <g id="line2d_7">
      <defs>
       <path d="M 0 0 
L -3.5 0 
" id="mccf85ba746" style="stroke:#000000;stroke-width:0.8;"/>
      </defs>
      <g>
       <use style="stroke:#000000;stroke-width:0.8;" x="57.6" xlink:href="#mccf85ba746" y="295.497776"/>
      </g>
     </g>
     <g id="text_8">
      <text style="font-family:DejaVu Sans;font-size:10px;font-style:normal;font-weight:normal;text-anchor:end;" transform="rotate(-0, 50.6, 299.296994)" x="50.6" y="299.296994">0.0</text>
     </g>
    </g>
    <g id="ytick_2">
     <g id="line2d_8">
      <g>
       <use style="stroke:#000000;stroke-width:0.8;" x="57.6" xlink:href="#mccf85ba746" y="251.510544"/>
      </g>
     </g>
     <g id="text_9">
      <text style="font-family:DejaVu Sans;font-size:10px;font-style:normal;font-weight:normal;text-anchor:end;" transform="rotate(-0, 50.6, 255.309762)" x="50.6" y="255.309762">0.1</text>
     </g>
    </g>
    <g id="ytick_3">
     <g id="line2d_9">
      <g>
       <use style="stroke:#000000;stroke-width:0.8;" x="57.6" xlink:href="#mccf85ba746" y="207.523312"/>
      </g>
     </g>
     <g id="text_10">
      <text style="font-family:DejaVu Sans;font-size:10px;font-style:normal;font-weight:normal;text-anchor:end;" transform="rotate(-0, 50.6, 211.32253)" x="50.6" y="211.32253">0.2</text>
     </g>
    </g>
    <g id="ytick_4">
     <g id="line2d_10">
      <g>
       <use style="stroke:#000000;stroke-width:0.8;" x="57.6" xlink:href="#mccf85ba746" y="163.53608"/>
      </g>
     </g>
     <g id="text_11">
      <text style="font-family:DejaVu Sans;font-size:10px;font-style:normal;font-weight:normal;text-anchor:end;" transform="rotate(-0, 50.6, 167.335299)" x="50.6" y="167.335299">0.3</text>
     </g>
    </g>
    <g id="ytick_5">
     <g id="line2d_11">
      <g>
       <use style="stroke:#000000;stroke-width:0.8;" x="57.6" xlink:href="#mccf85ba746" y="119.548848"/>
      </g>
     </g>
     <g id="text_12">
      <text style="font-family:DejaVu Sans;font-size:10px;font-style:normal;font-weight:normal;text-anchor:end;" transform="rotate(-0, 50.6, 123.348067)" x="50.6" y="123.348067">0.4</text>
     </g>
    </g>
    <g id="ytick_6">
     <g id="line2d_12">
      <g>
       <use style="stroke:#000000;stroke-width:0.8;" x="57.6" xlink:href="#mccf85ba746" y="75.561616"/>
      </g>
     </g>
     <g id="text_13">
      <text style="font-family:DejaVu Sans;font-size:10px;font-style:normal;font-weight:normal;text-anchor:end;" transform="rotate(-0, 50.6, 79.360835)" x="50.6" y="79.360835">0.5</text>
     </g>
    </g>
    <g id="text_14">
     <text style="font-family:DejaVu Sans;font-size:10px;font-style:normal;font-weight:normal;text-anchor:middle;" transform="rotate(-90, 28.617187, 174.528)" x="28.617187" y="174.528">Coin Flips Needed</text>
    </g>
   </g>
   <g id="line2d_13">
    <path clip-path="url(#p9ddfb28bd1)" d="M 73.832727 75.605598 
L 77.112066 80.008122 
L 80.391405 84.333827 
L 83.670744 88.584345 
L 86.950083 92.761268 
L 90.229421 96.866148 
L 93.50876 100.900495 
L 96.788099 104.865782 
L 100.067438 108.763446 
L 103.346777 112.594885 
L 106.626116 116.361467 
L 109.905455 120.06452 
L 113.184793 123.705344 
L 116.464132 127.285204 
L 119.743471 130.805336 
L 123.02281 134.266945 
L 126.302149 137.671206 
L 129.581488 141.019266 
L 132.860826 144.312245 
L 136.140165 147.551236 
L 139.419504 150.737305 
L 142.698843 153.871494 
L 145.978182 156.954819 
L 149.257521 159.988273 
L 152.53686 162.972824 
L 155.816198 165.909421 
L 159.095537 168.798987 
L 162.374876 171.642426 
L 165.654215 174.44062 
L 168.933554 177.194431 
L 172.212893 179.904701 
L 175.492231 182.572253 
L 178.77157 185.197893 
L 182.050909 187.782406 
L 185.330248 190.32656 
L 188.609587 192.831108 
L 191.888926 195.296783 
L 195.168264 197.724304 
L 198.447603 200.114372 
L 201.726942 202.467676 
L 205.006281 204.784886 
L 208.28562 207.066659 
L 211.564959 209.313638 
L 214.844298 211.526452 
L 218.123636 213.705715 
L 221.402975 215.85203 
L 224.682314 217.965985 
L 227.961653 220.048157 
L 231.240992 222.099109 
L 234.520331 224.119393 
L 237.799669 226.10955 
L 241.079008 228.070109 
L 244.358347 230.001588 
L 247.637686 231.904493 
L 250.917025 233.779321 
L 254.196364 235.626558 
L 257.475702 237.44668 
L 260.755041 239.240153 
L 264.03438 241.007435 
L 267.313719 242.748971 
L 270.593058 244.465202 
L 273.872397 246.156555 
L 277.151736 247.823451 
L 280.431074 249.466303 
L 283.710413 251.085515 
L 286.989752 252.681481 
L 290.269091 254.254591 
L 293.54843 255.805223 
L 296.827769 257.333752 
L 300.107107 258.840541 
L 303.386446 260.325949 
L 306.665785 261.790328 
L 309.945124 263.23402 
L 313.224463 264.657365 
L 316.503802 266.060692 
L 319.78314 267.444326 
L 323.062479 268.808585 
L 326.341818 270.153782 
L 329.621157 271.480223 
L 332.900496 272.788207 
L 336.179835 274.07803 
L 339.459174 275.349981 
L 342.738512 276.604343 
L 346.017851 277.841394 
L 349.29719 279.061408 
L 352.576529 280.264652 
L 355.855868 281.451389 
L 359.135207 282.621877 
L 362.414545 283.776369 
L 365.693884 284.915114 
L 368.973223 286.038356 
L 372.252562 287.146335 
L 375.531901 288.239284 
L 378.81124 289.317436 
L 382.090579 290.381017 
L 385.369917 291.430249 
L 388.649256 292.46535 
L 391.928595 293.486536 
L 395.207934 294.494017 
L 398.487273 295.488 
" style="fill:none;stroke:#1f77b4;stroke-linecap:square;stroke-width:1.5;"/>
   </g>
   <g id="line2d_14">
    <path clip-path="url(#p9ddfb28bd1)" d="M 73.832727 63.245191 
L 77.112066 88.757786 
L 80.391405 72.042637 
L 83.670744 68.523659 
L 86.950083 90.517275 
L 90.229421 95.795743 
L 93.50876 99.314721 
L 96.788099 81.719828 
L 100.067438 88.757786 
L 103.346777 107.232423 
L 106.626116 72.922382 
L 109.905455 90.517275 
L 113.184793 99.314721 
L 116.464132 104.593189 
L 119.743471 104.593189 
L 123.02281 105.472934 
L 126.302149 81.719828 
L 129.581488 88.757786 
L 132.860826 74.681871 
L 136.140165 72.922382 
L 139.419504 62.365446 
L 142.698843 125.70706 
L 145.978182 98.434977 
L 149.257521 93.156509 
L 152.53686 53.568 
L 155.816198 83.479318 
L 159.095537 124.827316 
L 162.374876 114.27038 
L 165.654215 90.517275 
L 168.933554 94.036253 
L 172.212893 110.751402 
L 175.492231 116.029869 
L 178.77157 108.991912 
L 182.050909 106.352678 
L 185.330248 125.70706 
L 188.609587 108.991912 
L 191.888926 84.359062 
L 195.168264 88.757786 
L 198.447603 88.757786 
L 201.726942 121.308337 
L 205.006281 94.036253 
L 208.28562 120.428593 
L 211.564959 107.232423 
L 214.844298 117.789359 
L 218.123636 94.036253 
L 221.402975 116.029869 
L 224.682314 121.308337 
L 227.961653 112.510891 
L 231.240992 126.586805 
L 234.520331 105.472934 
L 237.799669 120.428593 
L 241.079008 123.067826 
L 244.358347 110.751402 
L 247.637686 105.472934 
L 250.917025 134.504507 
L 254.196364 129.226039 
L 257.475702 134.504507 
L 260.755041 126.586805 
L 264.03438 104.593189 
L 267.313719 147.700676 
L 270.593058 131.865273 
L 273.872397 125.70706 
L 277.151736 127.46655 
L 280.431074 117.789359 
L 283.710413 156.498123 
L 286.989752 130.985528 
L 290.269091 132.745017 
L 293.54843 118.669103 
L 296.827769 141.542464 
L 300.107107 151.219655 
L 303.386446 131.865273 
L 306.665785 129.226039 
L 309.945124 152.0994 
L 313.224463 129.226039 
L 316.503802 130.105784 
L 319.78314 158.257612 
L 323.062479 136.263996 
L 326.341818 123.067826 
L 329.621157 132.745017 
L 332.900496 113.390635 
L 336.179835 140.662719 
L 339.459174 146.820932 
L 342.738512 152.0994 
L 346.017851 138.90323 
L 349.29719 152.0994 
L 352.576529 145.941187 
L 355.855868 137.143741 
L 359.135207 143.301953 
L 362.414545 138.90323 
L 365.693884 144.181698 
L 368.973223 150.33991 
L 372.252562 142.422208 
L 375.531901 137.143741 
L 378.81124 145.061442 
L 382.090579 149.460166 
L 385.369917 144.181698 
L 388.649256 139.782975 
L 391.928595 159.137357 
L 395.207934 159.137357 
L 398.487273 164.415824 
" style="fill:none;stroke:#ff7f0e;stroke-linecap:square;stroke-width:1.5;"/>
   </g>
   <g id="patch_3">
    <path d="M 57.6 307.584 
L 57.6 41.472 
" style="fill:none;stroke:#000000;stroke-linecap:square;stroke-linejoin:miter;stroke-width:0.8;"/>
   </g>
   <g id="patch_4">
    <path d="M 414.72 307.584 
L 414.72 41.472 
" style="fill:none;stroke:#000000;stroke-linecap:square;stroke-linejoin:miter;stroke-width:0.8;"/>
   </g>
   <g id="patch_5">
    <path d="M 57.6 307.584 
L 414.72 307.584 
" style="fill:none;stroke:#000000;stroke-linecap:square;stroke-linejoin:miter;stroke-width:0.8;"/>
   </g>
   <g id="patch_6">
    <path d="M 57.6 41.472 
L 414.72 41.472 
" style="fill:none;stroke:#000000;stroke-linecap:square;stroke-linejoin:miter;stroke-width:0.8;"/>
   </g>
   <g id="text_15">
    <text style="font-family:DejaVu Sans;font-size:12px;font-style:normal;font-weight:normal;text-anchor:middle;" transform="rotate(-0, 236.16, 35.472)" x="236.16" y="35.472">Coin Flips for 0.5*x/(1+0.5*x)</text>
   </g>
   <g id="legend_1">
    <g id="patch_7">
     <path d="M 200.996562 78.82825 
L 407.72 78.82825 
Q 409.72 78.82825 409.72 76.82825 
L 409.72 48.472 
Q 409.72 46.472 407.72 46.472 
L 200.996562 46.472 
Q 198.996562 46.472 198.996562 48.472 
L 198.996562 76.82825 
Q 198.996562 78.82825 200.996562 78.82825 
z
" style="fill:#ffffff;opacity:0.8;stroke:#cccccc;stroke-linejoin:miter;"/>
    </g>
    <g id="line2d_15">
     <path d="M 202.996562 54.570437 
L 222.996562 54.570437 
" style="fill:none;stroke:#1f77b4;stroke-linecap:square;stroke-width:1.5;"/>
    </g>
    <g id="line2d_16"/>
    <g id="text_16">
     <text style="font-family:DejaVu Sans;font-size:10px;font-style:normal;font-weight:normal;text-anchor:start;" transform="rotate(-0, 230.996562, 58.070437)" x="230.996562" y="58.070437">Coin Flip Lower Bound</text>
    </g>
    <g id="line2d_17">
     <path d="M 202.996562 69.248562 
L 222.996562 69.248562 
" style="fill:none;stroke:#ff7f0e;stroke-linecap:square;stroke-width:1.5;"/>
    </g>
    <g id="line2d_18"/>
    <g id="text_17">
     <text style="font-family:DejaVu Sans;font-size:10px;font-style:normal;font-weight:normal;text-anchor:start;" transform="rotate(-0, 230.996562, 72.748562)" x="230.996562" y="72.748562">Avg. Coins Flipped 0.5*x/(1+0.5*x)</text>
    </g>
   </g>
  </g>
 </g>
 <defs>
  <clipPath id="p9ddfb28bd1">
   <rect height="266.112" width="357.12" x="57.6" y="41.472"/>
  </clipPath>
 </defs>
</svg>

<svg height="460.8" viewBox="0 0 460.8 345.6" width="614.4" xmlns="http://www.w3.org/2000/svg" xmlns:xlink="http://www.w3.org/1999/xlink"><defs><style>*{stroke-linecap:butt;stroke-linejoin:round}</style></defs><g id="figure_1"><path d="M0 345.6h460.8V0H0z" fill="#fff" id="patch_1"/><g id="axes_1"><path d="M57.6 307.584h357.12V41.472H57.6z" fill="#fff" id="patch_2"/><g id="matplotlib.axis_1"><g id="xtick_1"><g id="line2d_1"><defs><path d="M0 0v3.5" id="mcfb440d6a2" stroke="#000" stroke-width=".8"/></defs><use x="73.8" xlink:href="#mcfb440d6a2" y="307.584" stroke="#000" stroke-width=".8"/></g><text x="73.8" y="322.182" font-family="DejaVu Sans" font-size="10" font-weight="400" text-anchor="middle" id="text_1">0.0</text></g><g id="xtick_2"><use x="138.744" xlink:href="#mcfb440d6a2" y="307.584" stroke="#000" stroke-width=".8" id="line2d_2"/><text x="138.744" y="322.182" font-family="DejaVu Sans" font-size="10" font-weight="400" text-anchor="middle" id="text_2">0.2</text></g><g id="xtick_3"><use x="203.688" xlink:href="#mcfb440d6a2" y="307.584" stroke="#000" stroke-width=".8" id="line2d_3"/><text x="203.688" y="322.182" font-family="DejaVu Sans" font-size="10" font-weight="400" text-anchor="middle" id="text_3">0.4</text></g><g id="xtick_4"><use x="268.632" xlink:href="#mcfb440d6a2" y="307.584" stroke="#000" stroke-width=".8" id="line2d_4"/><text x="268.632" y="322.182" font-family="DejaVu Sans" font-size="10" font-weight="400" text-anchor="middle" id="text_4">0.6</text></g><g id="xtick_5"><use x="333.576" xlink:href="#mcfb440d6a2" y="307.584" stroke="#000" stroke-width=".8" id="line2d_5"/><text x="333.576" y="322.182" font-family="DejaVu Sans" font-size="10" font-weight="400" text-anchor="middle" id="text_5">0.8</text></g><g id="xtick_6"><use x="398.52" xlink:href="#mcfb440d6a2" y="307.584" stroke="#000" stroke-width=".8" id="line2d_6"/><text x="398.52" y="322.182" font-family="DejaVu Sans" font-size="10" font-weight="400" text-anchor="middle" id="text_6">1.0</text></g><text x="236.16" y="335.861" font-family="DejaVu Sans" font-size="10" font-weight="400" text-anchor="middle" id="text_7">Input Coin&apos;s Heads Probability (λ)</text></g><g id="matplotlib.axis_2"><g id="ytick_1"><g id="line2d_7"><defs><path d="M0 0h-3.5" id="mccf85ba746" stroke="#000" stroke-width=".8"/></defs><use x="57.6" xlink:href="#mccf85ba746" y="295.498" stroke="#000" stroke-width=".8"/></g><text x="50.6" y="299.297" font-family="DejaVu Sans" font-size="10" font-weight="400" text-anchor="end" id="text_8">0.0</text></g><g id="ytick_2"><use x="57.6" xlink:href="#mccf85ba746" y="251.511" stroke="#000" stroke-width=".8" id="line2d_8"/><text x="50.6" y="255.31" font-family="DejaVu Sans" font-size="10" font-weight="400" text-anchor="end" id="text_9">0.1</text></g><g id="ytick_3"><use x="57.6" xlink:href="#mccf85ba746" y="207.523" stroke="#000" stroke-width=".8" id="line2d_9"/><text x="50.6" y="211.323" font-family="DejaVu Sans" font-size="10" font-weight="400" text-anchor="end" id="text_10">0.2</text></g><g id="ytick_4"><use x="57.6" xlink:href="#mccf85ba746" y="163.536" stroke="#000" stroke-width=".8" id="line2d_10"/><text x="50.6" y="167.335" font-family="DejaVu Sans" font-size="10" font-weight="400" text-anchor="end" id="text_11">0.3</text></g><g id="ytick_5"><use x="57.6" xlink:href="#mccf85ba746" y="119.549" stroke="#000" stroke-width=".8" id="line2d_11"/><text x="50.6" y="123.348" font-family="DejaVu Sans" font-size="10" font-weight="400" text-anchor="end" id="text_12">0.4</text></g><g id="ytick_6"><use x="57.6" xlink:href="#mccf85ba746" y="75.562" stroke="#000" stroke-width=".8" id="line2d_12"/><text x="50.6" y="79.361" font-family="DejaVu Sans" font-size="10" font-weight="400" text-anchor="end" id="text_13">0.5</text></g><text transform="rotate(-90 28.617 174.528)" x="28.617" y="174.528" font-family="DejaVu Sans" font-size="10" font-weight="400" text-anchor="middle" id="text_14">Coin Flips Needed</text></g><path clip-path="url(#p9ddfb28bd1)" d="M73.833 75.606l3.28 4.402 3.278 4.326 3.28 4.25 3.28 4.177 3.278 4.105 3.28 4.034 3.28 3.966 3.278 3.897 3.28 3.832 3.28 3.766 3.278 3.704 3.28 3.64 3.28 3.58 3.278 3.52 3.28 3.462 3.28 3.404 3.278 3.348 3.28 3.293 3.28 3.24 3.279 3.185 3.279 3.134 3.28 3.084 3.279 3.033 3.279 2.985 3.28 2.936 3.279 2.89 3.279 2.843 3.28 2.799 3.279 2.753 3.279 2.71 3.28 2.668 3.279 2.626 3.279 2.584 3.28 2.545 3.279 2.504 3.279 2.466 3.28 2.427 3.279 2.39 3.279 2.354 3.28 2.317 3.279 2.282 3.279 2.247 3.28 2.212 3.279 2.18 3.279 2.146 3.28 2.114 3.279 2.082 3.279 2.051 3.28 2.02 3.279 1.99 3.279 1.961 3.28 1.932 3.279 1.902 3.279 1.875 3.28 1.848 3.279 1.82 3.279 1.793 3.28 1.767 3.279 1.742 3.28 1.716 3.278 1.692 3.28 1.666 3.28 1.643 3.278 1.62 3.28 1.595 3.28 1.574 3.278 1.55 3.28 1.529 3.28 1.507 3.278 1.485 3.28 1.464 3.28 1.444 3.278 1.423 3.28 1.404 3.28 1.383 3.278 1.365 3.28 1.345 3.28 1.326 3.278 1.308 3.28 1.29 3.28 1.272 3.279 1.254 3.279 1.237 3.28 1.22 3.279 1.204 3.279 1.186 3.28 1.17 3.279 1.155 3.279 1.14 3.28 1.122 3.279 1.108 3.279 1.093 3.28 1.078 3.279 1.064 3.279 1.05 3.28 1.034 3.279 1.022 3.279 1.007 3.28.994" fill="none" stroke="#1f77b4" stroke-linecap="square" stroke-width="1.5" id="line2d_13"/><path clip-path="url(#p9ddfb28bd1)" d="M73.833 63.245l3.28 25.513 3.278-16.715 3.28-3.52 3.28 21.994 3.278 5.279 3.28 3.519 3.28-17.595 3.278 7.038 3.28 18.474 3.28-34.31 3.278 17.595 3.28 8.798 3.28 5.278h3.278l3.28.88 3.28-23.753 3.278 7.038 3.28-14.076 3.28-1.76 3.279-10.557 3.279 63.342 3.28-27.272 3.279-5.278 3.279-39.589 3.28 29.911 3.279 41.348 3.279-10.557 3.28-23.753 3.279 3.52 3.279 16.714 3.28 5.279 3.279-7.038 3.279-2.64 3.28 19.355 3.279-16.715 3.279-24.633 3.28 4.399h3.279l3.279 32.55 3.28-27.272 3.279 26.393 3.279-13.197 3.28 10.557 3.279-23.753 3.279 21.994 3.28 5.278 3.279-8.797 3.279 14.076 3.28-21.114 3.279 14.956 3.279 2.639 3.28-12.317 3.279-5.278 3.279 29.032 3.28-5.279 3.279 5.279 3.279-7.918 3.28-21.994 3.279 43.108 3.28-15.836 3.278-6.158 3.28 1.76 3.28-9.678 3.278 38.71 3.28-25.513 3.28 1.759 3.278-14.076 3.28 22.873 3.28 9.678 3.278-19.355 3.28-2.639 3.28 22.873 3.278-22.873 3.28.88 3.28 28.152 3.278-21.994 3.28-13.196 3.28 9.677 3.278-19.354 3.28 27.272 3.28 6.158 3.279 5.278 3.279-13.196 3.28 13.196 3.279-6.158 3.279-8.797 3.28 6.158 3.279-4.399 3.279 5.279 3.28 6.158 3.279-7.918 3.279-5.278 3.28 7.917 3.279 4.4 3.279-5.28 3.28-4.398 3.279 19.354h3.279l3.28 5.279" fill="none" stroke="#ff7f0e" stroke-linecap="square" stroke-width="1.5" id="line2d_14"/><path d="M57.6 307.584V41.472" fill="none" stroke="#000" stroke-linecap="square" stroke-width=".8" id="patch_3"/><path d="M414.72 307.584V41.472" fill="none" stroke="#000" stroke-linecap="square" stroke-width=".8" id="patch_4"/><path d="M57.6 307.584h357.12" fill="none" stroke="#000" stroke-linecap="square" stroke-width=".8" id="patch_5"/><path d="M57.6 41.472h357.12" fill="none" stroke="#000" stroke-linecap="square" stroke-width=".8" id="patch_6"/><text x="236.16" y="35.472" font-family="DejaVu Sans" font-size="12" font-weight="400" text-anchor="middle" id="text_15">Coin Flips for 0.5*x/(1+0.5*x)</text><g id="legend_1"><path d="M200.997 78.828H407.72q2 0 2-2V48.472q0-2-2-2H200.997q-2 0-2 2v28.356q0 2 2 2z" fill="#fff" opacity=".8" stroke="#ccc" id="patch_7"/><path d="M202.997 54.57h20" fill="none" stroke="#1f77b4" stroke-linecap="square" stroke-width="1.5" id="line2d_15"/><text x="230.997" y="58.07" font-family="DejaVu Sans" font-size="10" font-weight="400" id="text_16">Coin Flip Lower Bound</text><path d="M202.997 69.249h20" fill="none" stroke="#ff7f0e" stroke-linecap="square" stroke-width="1.5" id="line2d_17"/><text x="230.997" y="72.749" font-family="DejaVu Sans" font-size="10" font-weight="400" id="text_17">Avg. Coins Flipped 0.5*x/(1+0.5*x)</text></g></g></g><defs><clipPath id="p9ddfb28bd1"><path d="M57.6 41.472h357.12v266.112H57.6z"/></clipPath></defs></svg>
